X:13181
T:Pirate,The,1st part. JNu.31
T:Roxiana,aka. JNu.31
M:6/8
L:1/8
Q:110
S:James Nuttall MS,c1830,Rossendale,East Lancs.
R:Quadrille
O:England
A:East Lancashire
N:This identical tune appears as no 34 in the collection under the title
N:..CGP
Z:vmp.Manchester Morris Men
K:A
"primo"e|a2e cde|f2f agf|efe edc|cBB Beg|!
a2e cde|f2f agf|efe dcB|A2a a2::!
c|d3Bcd|c2e A2c|d3 Bcd|c2e A2a|!
g2a f2a|e2a d2b|gfg efg|a2A A2:|]
